Yaru++/apps/scalable/teeworlds.svg

<svg enable-background="new" height="256" viewBox="0 0 256 256" width="256" xmlns="http://www.w3.org/2000/svg" xmlns:xlink="http://www.w3.org/1999/xlink">
  <filter id="filter11191" color-interpolation-filters="sRGB" height="1.024" width="1.024" x="-.01" y="-.01">
    <feGaussianBlur stdDeviation="1.12"/>
  </filter>
  <filter id="filter11210" color-interpolation-filters="sRGB" height="1.096" width="1.096" x="-.05" y="-.05">
    <feGaussianBlur stdDeviation="4.48"/>
  </filter>
  <path d="m232.0285 227.70203c-.0221 18.3503-4.52874 24.46931-61.80926 24.46931-16.28411 0-36.10646 1.44042-46.54229-5.15176-9.8539-6.22455-6.29982-15.35964-6.29982-24.65635 0-19.14251 18.61997-32.58095 50.28007-32.58095 31.66011 0 64.39494 18.75669 64.3713 37.91975z" opacity=".1"/>
  <path d="m138.0346 227.70203c-.0221 18.3503-4.52874 24.46931-61.809255 24.46931-16.284095 0-36.106438 1.44042-46.542295-5.15176-9.853879-6.22455-6.29982-15.35964-6.29982-24.65635 0-19.14251 18.619979-32.58095 50.280064-32.58095 31.660116 0 64.394946 18.75669 64.371306 37.91975z" opacity=".1"/>
  <circle cx="128.752" cy="127.248" filter="url(#filter11210)" opacity=".1" r="112"/>
  <circle cx="128.752" cy="125.248" filter="url(#filter11191)" opacity=".1" r="112"/>
  <circle cx="128.752" cy="123.248" opacity=".1" r="114"/>
  <rect fill="#d5d3cf" height="212.8" rx="104.533" width="209.067" x="24.18" y="19.55"/>
  <path d="m240.752 123.248a112 112 0 0 1 -111.99997 111.99999 112 112 0 0 1 -112.000031-111.99999 112 112 0 0 1 112.000031-112.000004 112 112 0 0 1 111.99997 112.000004z" fill="#fdc92b"/>
  <path d="m128.752 11.248007a112 112 0 0 0 -112 111.999993 112 112 0 0 0 .04102 1.16992 112 112 0 0 1 111.95898-111.169913 112 112 0 0 1 111.95898 110.830073 112 112 0 0 0 .041-.83008 112 112 0 0 0 -112-111.999993z" fill="#fff" opacity=".3"/>
  <path d="m128.752 235.248a112 112 0 0 1 -112-112 112 112 0 0 1 .04102-1.16992 112 112 0 0 0 111.95898 111.16992 112 112 0 0 0 111.95898-110.83008 112 112 0 0 1 .041.83008 112 112 0 0 1 -112 112z" opacity=".2"/>
  <path d="m228.74198 227.09576c-.0215 17.70031-4.40006 23.60258-60.05294 23.60258-15.82139 0-35.08049 1.3894-45.21979-4.96928-9.57389-6.00407-6.12081-14.81558-6.12081-23.783 0-18.46447 18.09088-31.42691 48.85135-31.42691 30.76049 0 62.56515 18.09232 62.54219 36.57661z" fill="#f34f17"/>
  <path d="m166.19922 190.51953c-30.76047 0-48.85156 12.96131-48.85156 31.42578 0 4.05646-.69626 8.07895-.58399 11.82617.10595-3.16237.58399-6.48307.58399-9.82617 0-18.46447 18.09109-31.42578 48.85156-31.42578 30.44153 0 61.88668 17.71926 62.51367 36.00195.00847-.47736.0287-.93003.0293-1.42578.02296-18.48429-31.78248-36.57617-62.54297-36.57617z" fill="#fff" opacity=".3"/>
  <path d="m228.71289 226.52148c-.2939 16.5667-5.92927 22.17774-60.02344 22.17774-15.82139 0-35.0814 1.38798-45.2207-4.9707-5.24309-3.2881-6.56915-7.42046-6.70508-11.95704-.17824 5.32028.70038 10.19131 6.70508 13.95704 10.1393 6.35868 29.39931 4.9707 45.2207 4.9707 55.65288 0 60.03124-5.90321 60.05274-23.60352.00024-.19166-.02273-.38265-.0293-.57422z" opacity=".2"/>
  <path d="m137.41893 227.09576c-.0215 17.70031-4.40006 23.60258-60.052943 23.60258-15.82138 0-35.08047 1.3894-45.21979-4.96928-9.57388-6.00407-6.12081-14.81558-6.12081-23.783 0-18.46447 18.09089-31.42691 48.85135-31.42691 30.760493 0 62.565163 18.09232 62.542193 36.57661z" fill="#f34f17"/>
  <path d="m111.57422 78.519531a17.230021 25.845877 0 0 0 -17.23047 25.845699 17.230021 25.845877 0 0 0 17.23047 25.84571 17.230021 25.845877 0 0 0 17.22851-25.84571 17.230021 25.845877 0 0 0 -17.22851-25.845699zm51.6914 0a17.230021 25.845877 0 0 0 -17.23046 25.845699 17.230021 25.845877 0 0 0 17.23046 25.84571 17.230021 25.845877 0 0 0 17.23047-25.84571 17.230021 25.845877 0 0 0 -17.23047-25.845699z" fill="#3b3b3b"/>
  <path d="m128 55.500001c-36.528307 0-66.140351 29.612043-66.140351 66.140349.01552.34462.03374.68911.05465 1.03344.820406-35.91588 30.160454-64.609613 66.085701-64.62993 36.0901.02503 65.4974 28.976882 66.0857 65.06219.0236-.48835.0419-.97695.0547-1.4657 0-36.528306-29.61204-66.140349-66.14035-66.140349z" fill="#fff" opacity=".2" transform="matrix(1.6933681 0 0 1.6933681 -87.947553 -84.385778)"/>
  <path d="m74.876953 190.51953c-30.76046 0-48.851562 12.96131-48.851562 31.42578 0 4.0614-.700349 8.08874-.585938 11.83985.105029-3.16644.585938-6.49198.585938-9.83985 0-18.46447 18.091102-31.42578 48.851562-31.42578 30.441537 0 61.884737 17.71926 62.511717 36.00195.00847-.47736.0287-.93003.0293-1.42578.02297-18.48429-31.78052-36.57617-62.541017-36.57617z" fill="#fff" opacity=".3"/>
  <path d="m137.38867 226.52148c-.2939 16.5667-5.92927 22.17774-60.023436 22.17774-15.82138 0-35.07943 1.38798-45.21875-4.9707-5.237809-3.28479-6.568827-7.41217-6.707031-11.94336-.176295 5.315.707434 10.18083 6.707031 13.94336 10.13932 6.35868 29.39737 4.9707 45.21875 4.9707 55.652886 0 60.031236-5.90321 60.052736-23.60352.00024-.19166-.02273-.38265-.0293-.57422z" opacity=".2"/>
  <path d="m111.57422 78.519531a17.230021 25.845877 0 0 0 -17.23047 25.845699 17.230021 25.845877 0 0 0 .027344.82813 17.230021 25.845877 0 0 1 17.203126-24.673829 17.230021 25.845877 0 0 1 17.20117 25.017579 17.230021 25.845877 0 0 0 .02734-1.17188 17.230021 25.845877 0 0 0 -17.22851-25.845699zm51.6914 0a17.230021 25.845877 0 0 0 -17.23046 25.845699 17.230021 25.845877 0 0 0 .02734.82813 17.230021 25.845877 0 0 1 17.20312-24.673829 17.230021 25.845877 0 0 1 17.20313 25.017579 17.230021 25.845877 0 0 0 .02734-1.17188 17.230021 25.845877 0 0 0 -17.23047-25.845699z" fill="#fff" opacity=".3"/>
  <path d="m94.371094 103.19336a17.230021 25.845877 0 0 0 -.027344 1.17187 17.230021 25.845877 0 0 0 17.23047 25.84571 17.230021 25.845877 0 0 0 17.22851-25.84571 17.230021 25.845877 0 0 0 -.02734-.82812 17.230021 25.845877 0 0 1 -17.20117 24.67383 17.230021 25.845877 0 0 1 -17.203126-25.01758zm51.691406 0a17.230021 25.845877 0 0 0 -.02734 1.17187 17.230021 25.845877 0 0 0 17.23046 25.84571 17.230021 25.845877 0 0 0 17.23047-25.84571 17.230021 25.845877 0 0 0 -.02734-.82812 17.230021 25.845877 0 0 1 -17.20313 24.67383 17.230021 25.845877 0 0 1 -17.20312-25.01758z" opacity=".2"/>
</svg>

<svg xmlns="http://www.w3.org/2000/svg" xmlns:xlink="http://www.w3.org/1999/xlink" style="enable-background:new" width="256" height="256" version="1.0" viewBox="0 0 256 256">
 <title id="title4162">
  Adwaita Icon Template
 </title>
 <defs>
  <linearGradient id="linearGradient950">
   <stop style="stop-color:#9a9996" id="stop946" offset="0"/>
   <stop style="stop-color:#77767b" id="stop948" offset="1"/>
  </linearGradient>
  <linearGradient id="linearGradient1001" x1="1660.857" x2="1662.99" y1="806.297" y2="812.882" gradientTransform="matrix(1.8293937,-0.81599442,0.81599442,1.8293937,-3645.9624,100.02949)" gradientUnits="userSpaceOnUse" xlink:href="#linearGradient950"/>
  <clipPath id="clipPath5154" clipPathUnits="userSpaceOnUse">
   <circle style="fill:url(#radialGradient5158)" cx="128" cy="924.362" r="109.647"/>
  </clipPath>
  <clipPath id="clipPath977" clipPathUnits="userSpaceOnUse">
   <circle style="fill:url(#radialGradient5158)" cx="128" cy="924.362" r="109.647"/>
  </clipPath>
  <clipPath id="clipPath4688" clipPathUnits="userSpaceOnUse">
   <path style="fill:url(#radialGradient4692);stroke:#a7003f;stroke-linecap:round;stroke-linejoin:round" d="m 106.42383,889.60156 c -2.2448,-0.0524 -4.09304,1.75264 -4.09375,3.99805 v 32.64453 32.64453 c -4e-5,3.07923 3.33305,5.004 6,3.46485 l 28.26953,-16.32227 28.27148,-16.32227 c 2.66559,-1.54001 2.66559,-5.38772 0,-6.92773 l -28.27148,-16.32227 -28.26953,-16.32226 c -0.58054,-0.3353 -1.23603,-0.51932 -1.90625,-0.53516 z"/>
  </clipPath>
  <clipPath id="clipPath4564" clipPathUnits="userSpaceOnUse">
   <circle style="fill:url(#radialGradient4568)" cx="128" cy="924.362" r="109.647"/>
  </clipPath>
  <clipPath id="clipPath6215" clipPathUnits="userSpaceOnUse">
   <path style="fill:url(#radialGradient6219)" d="m 105.17325,806.18572 c -3.06859,0.56361 -6.11393,1.24721 -9.129005,2.04923 -3.838255,1.06506 -7.62084,2.32142 -11.333578,3.76438 -3.712189,1.44307 -7.34989,3.07087 -10.899472,4.87732 -3.549153,1.80656 -7.005749,3.78947 -10.35684,5.94129 -3.351877,2.15253 -6.593991,4.47137 -9.714191,6.94783 -3.119992,2.47544 -6.114241,5.10535 -8.971529,7.87988 -0.367219,0.38909 -0.731819,0.78065 -1.093777,1.17464 2.60205,17.85956 16.832359,40.03752 30.863064,55.74236 -4.76734,8.84435 -7.265993,18.73329 -7.272057,28.78068 0.02104,2.87431 0.246096,5.7435 0.673482,8.58593 -20.257302,-9.18513 -43.077023,-26.53494 -52.798465,-47.36396 -0.440667,1.15171 -0.863474,2.31018 -1.268271,3.47498 -1.176789,3.80495 -2.162562,7.66637 -2.953625,11.56979 -0.79154,3.90311 -1.3874065,7.84335 -1.7853678,11.80598 -0.39733,3.96334 -0.5961891,7.94407 -0.5958321,11.92728 -4.394e-4,2.81936 0.098928,5.63785 0.2979155,8.45018 0.282275,3.97319 0.763088,7.92978 1.4406374,11.85493 0.625626,3.51826 1.408798,7.00668 2.347153,10.45473 16.778133,6.68355 43.114514,5.45001 63.748015,1.14301 6.818545,11.02763 16.987182,19.58379 29.018153,24.41667 -18.071844,12.93645 -44.490188,24.02095 -67.37308,22.03245 1.384097,1.665 2.813203,3.2921 4.285735,4.8794 2.774977,2.8571 5.691103,5.5737 8.737453,8.1395 3.046107,2.5658 6.218619,4.9777 9.505651,7.2266 3.287242,2.2488 6.684891,4.3319 10.180217,6.2413 3.495379,1.9096 7.084075,3.6433 10.752641,5.1944 3.66896,1.5509 7.413193,2.9174 11.218668,4.0942 1.438565,0.3959 2.884421,0.7648 4.336807,1.1066 14.138748,-11.1844 26.206378,-34.5828 32.780368,-54.56406 12.95816,-0.38251 25.45395,-4.90132 35.65955,-12.89544 2.15922,22.12638 -1.46693,50.5581 -14.64692,69.3832 3.06859,-0.5636 6.11393,-1.2473 9.129,-2.0493 3.83826,-1.0651 7.62084,-2.3214 11.33358,-3.7644 3.71219,-1.4431 7.34989,-3.0709 10.89947,-4.8773 3.54915,-1.8066 7.00575,-3.7895 10.35684,-5.9413 3.35188,-2.1525 6.59399,-4.4714 9.71419,-6.9478 3.11999,-2.4754 6.11424,-5.1054 8.97153,-7.8799 0.36722,-0.3891 0.73182,-0.7806 1.09378,-1.1746 -2.60204,-17.85957 -16.83236,-40.03755 -30.86307,-55.74238 4.76735,-8.84435 7.266,-18.7333 7.27207,-28.78069 -0.021,-2.8743 -0.24611,-5.74349 -0.6735,-8.58592 20.25731,9.18513 43.07704,26.53494 52.79848,47.36396 0.44067,-1.15171 0.86347,-2.31018 1.26827,-3.47499 1.17679,-3.80495 2.16256,-7.66636 2.95362,-11.56978 0.79154,-3.90311 1.38741,-7.84335 1.78537,-11.80598 0.39733,-3.96334 0.59619,-7.94408 0.59583,-11.92729 4.4e-4,-2.81936 -0.0989,-5.63784 -0.29791,-8.45017 -0.28228,-3.97319 -0.76309,-7.92978 -1.44064,-11.85493 -0.62776,-3.53416 -1.41449,-7.03823 -2.35779,-10.50154 -20.56165,-7.32804 -45.89823,-4.79548 -63.74906,-1.11372 -6.81835,-11.01918 -16.98234,-19.56874 -29.00647,-24.39915 18.07184,-12.93645 44.49019,-24.02091 67.37307,-22.03241 -1.38409,-1.66502 -2.8132,-3.2921 -4.28573,-4.87944 -2.77498,-2.85712 -5.6911,-5.57368 -8.73745,-8.13949 -3.04611,-2.56581 -6.21862,-4.97769 -9.50565,-7.22659 -3.28724,-2.24885 -6.68489,-4.3319 -10.18022,-6.24135 -3.49538,-1.90963 -7.08407,-3.64325 -10.75264,-5.19438 -3.66896,-1.55092 -7.41319,-2.91736 -11.21867,-4.09421 -1.42662,-0.39262 -2.86041,-0.75869 -4.30063,-1.09804 -14.14688,11.18369 -26.2293,34.57475 -32.8107,54.55552 -12.96018,0.38127 -25.4582,4.90015 -35.665394,12.89544 -2.15922,-22.12637 1.466931,-50.55807 14.646924,-69.38315 z"/>
  </clipPath>
  <linearGradient id="linearGradient954">
   <stop id="stop950" offset="0" style="stop-color:#faf8f6"/>
   <stop id="stop952" offset="1" style="stop-color:#f1f0e9"/>
  </linearGradient>
  <filter style="color-interpolation-filters:sRGB" id="filter11191" width="1.024" height="1.024" x="-.01" y="-.01">
   <feGaussianBlur id="feGaussianBlur11193" stdDeviation="1.12"/>
  </filter>
  <filter style="color-interpolation-filters:sRGB" id="filter11210" width="1.096" height="1.096" x="-.05" y="-.05">
   <feGaussianBlur id="feGaussianBlur11212" stdDeviation="4.48"/>
  </filter>
  <linearGradient id="linearGradient4182">
   <stop style="stop-color:#c03b00" id="stop4184" offset="0"/>
   <stop style="stop-color:#e74700" id="stop4186" offset="1"/>
  </linearGradient>
  <linearGradient id="linearGradient4175">
   <stop style="stop-color:#fff6b8" id="stop4177" offset="0"/>
   <stop style="stop-color:#ffef81" id="stop4179" offset="1"/>
  </linearGradient>
 </defs>
 <path style="isolation:isolate;opacity:0.1" d="m 232.0285,227.70203 c -0.0221,18.3503 -4.52874,24.46931 -61.80926,24.46931 -16.28411,0 -36.10646,1.44042 -46.54229,-5.15176 -9.8539,-6.22455 -6.29982,-15.35964 -6.29982,-24.65635 0,-19.14251 18.61997,-32.58095 50.28007,-32.58095 31.66011,0 64.39494,18.75669 64.3713,37.91975 z"/>
 <path style="isolation:isolate;opacity:0.1" d="m 138.0346,227.70203 c -0.0221,18.3503 -4.52874,24.46931 -61.809255,24.46931 -16.284095,0 -36.106438,1.44042 -46.542295,-5.15176 -9.853879,-6.22455 -6.29982,-15.35964 -6.29982,-24.65635 0,-19.14251 18.619979,-32.58095 50.280064,-32.58095 31.660116,0 64.394946,18.75669 64.371306,37.91975 z"/>
 <circle style="opacity:0.1;filter:url(#filter11210)" cx="128.752" cy="127.248" r="112"/>
 <circle style="opacity:0.1;filter:url(#filter11191)" cx="128.752" cy="125.248" r="112"/>
 <circle style="opacity:0.1" cx="128.752" cy="123.248" r="114"/>
 <rect style="fill:#d5d3cf" width="209.067" height="212.8" x="24.18" y="19.55" rx="104.533" ry="104.533"/>
 <path style="fill:#fdc92b" d="M 240.752,123.248 A 112,112 0 0 1 128.75203,235.24799 112,112 0 0 1 16.751999,123.248 112,112 0 0 1 128.75203,11.247996 112,112 0 0 1 240.752,123.248 Z"/>
 <path style="opacity:0.3;fill:#ffffff" d="M 128.752,11.248007 A 112,112 0 0 0 16.752,123.248 112,112 0 0 0 16.79302,124.41792 112,112 0 0 1 128.752,13.248007 112,112 0 0 1 240.71098,124.07808 a 112,112 0 0 0 0.041,-0.83008 112,112 0 0 0 -112,-111.999993 z"/>
 <path style="opacity:0.2" d="m 128.752,235.248 a 112,112 0 0 1 -112,-112 112,112 0 0 1 0.04102,-1.16992 A 112,112 0 0 0 128.752,233.248 112,112 0 0 0 240.71098,122.41792 a 112,112 0 0 1 0.041,0.83008 112,112 0 0 1 -112,112 z"/>
 <path d="m 228.74198,227.09576 c -0.0215,17.70031 -4.40006,23.60258 -60.05294,23.60258 -15.82139,0 -35.08049,1.3894 -45.21979,-4.96928 -9.57389,-6.00407 -6.12081,-14.81558 -6.12081,-23.783 0,-18.46447 18.09088,-31.42691 48.85135,-31.42691 30.76049,0 62.56515,18.09232 62.54219,36.57661 z" style="isolation:isolate;fill:#f34f17"/>
 <path style="isolation:isolate;fill:#ffffff;opacity:0.3" d="M 166.19922 190.51953 C 135.43875 190.51953 117.34766 203.48084 117.34766 221.94531 C 117.34766 226.00177 116.6514 230.02426 116.76367 233.77148 C 116.86962 230.60911 117.34766 227.28841 117.34766 223.94531 C 117.34766 205.48084 135.43875 192.51953 166.19922 192.51953 C 196.64075 192.51953 228.0859 210.23879 228.71289 228.52148 C 228.72136 228.04412 228.74159 227.59145 228.74219 227.0957 C 228.76515 208.61141 196.95971 190.51953 166.19922 190.51953 z"/>
 <path style="isolation:isolate;opacity:0.2" d="M 228.71289 226.52148 C 228.41899 243.08818 222.78362 248.69922 168.68945 248.69922 C 152.86806 248.69922 133.60805 250.0872 123.46875 243.72852 C 118.22566 240.44042 116.8996 236.30806 116.76367 231.77148 C 116.58543 237.09176 117.46405 241.96279 123.46875 245.72852 C 133.60805 252.0872 152.86806 250.69922 168.68945 250.69922 C 224.34233 250.69922 228.72069 244.79601 228.74219 227.0957 C 228.74243 226.90404 228.71946 226.71305 228.71289 226.52148 z"/>
 <path d="m 137.41893,227.09576 c -0.0215,17.70031 -4.40006,23.60258 -60.052943,23.60258 -15.82138,0 -35.08047,1.3894 -45.21979,-4.96928 -9.57388,-6.00407 -6.12081,-14.81558 -6.12081,-23.783 0,-18.46447 18.09089,-31.42691 48.85135,-31.42691 30.760493,0 62.565163,18.09232 62.542193,36.57661 z" style="isolation:isolate;fill:#f34f17"/>
 <path style="isolation:isolate;vector-effect:non-scaling-stroke;fill:#3b3b3b" id="ellipse52" d="M 111.57422 78.519531 A 17.230021 25.845877 0 0 0 94.34375 104.36523 A 17.230021 25.845877 0 0 0 111.57422 130.21094 A 17.230021 25.845877 0 0 0 128.80273 104.36523 A 17.230021 25.845877 0 0 0 111.57422 78.519531 z M 163.26562 78.519531 A 17.230021 25.845877 0 0 0 146.03516 104.36523 A 17.230021 25.845877 0 0 0 163.26562 130.21094 A 17.230021 25.845877 0 0 0 180.49609 104.36523 A 17.230021 25.845877 0 0 0 163.26562 78.519531 z"/>
 <g transform="matrix(1.6933681,0,0,1.6933681,-87.947553,-84.385778)" style="opacity:0.2;isolation:isolate">
  <path d="m 128,55.500001 c -36.528307,0 -66.140351,29.612043 -66.140351,66.140349 0.01552,0.34462 0.03374,0.68911 0.05465,1.03344 C 62.734705,86.75791 92.074753,58.064177 128,58.04386 c 36.0901,0.02503 65.4974,28.976882 66.0857,65.06219 0.0236,-0.48835 0.0419,-0.97695 0.0547,-1.4657 0,-36.528306 -29.61204,-66.140349 -66.14035,-66.140349 z" style="fill:#ffffff"/>
 </g>
 <path style="isolation:isolate;fill:#ffffff;opacity:0.3" d="M 74.876953 190.51953 C 44.116493 190.51953 26.025391 203.48084 26.025391 221.94531 C 26.025391 226.00671 25.325042 230.03405 25.439453 233.78516 C 25.544482 230.61872 26.025391 227.29318 26.025391 223.94531 C 26.025391 205.48084 44.116493 192.51953 74.876953 192.51953 C 105.31849 192.51953 136.76169 210.23879 137.38867 228.52148 C 137.39714 228.04412 137.41737 227.59145 137.41797 227.0957 C 137.44094 208.61141 105.63745 190.51953 74.876953 190.51953 z"/>
 <path style="isolation:isolate;opacity:0.2" d="M 137.38867 226.52148 C 137.09477 243.08818 131.4594 248.69922 77.365234 248.69922 C 61.543854 248.69922 42.285804 250.0872 32.146484 243.72852 C 26.908675 240.44373 25.577657 236.31635 25.439453 231.78516 C 25.263158 237.10016 26.146887 241.96599 32.146484 245.72852 C 42.285804 252.0872 61.543854 250.69922 77.365234 250.69922 C 133.01812 250.69922 137.39647 244.79601 137.41797 227.0957 C 137.41821 226.90404 137.39524 226.71305 137.38867 226.52148 z"/>
 <path style="isolation:isolate;vector-effect:non-scaling-stroke;fill:#ffffff;opacity:0.3" d="M 111.57422 78.519531 A 17.230021 25.845877 0 0 0 94.34375 104.36523 A 17.230021 25.845877 0 0 0 94.371094 105.19336 A 17.230021 25.845877 0 0 1 111.57422 80.519531 A 17.230021 25.845877 0 0 1 128.77539 105.53711 A 17.230021 25.845877 0 0 0 128.80273 104.36523 A 17.230021 25.845877 0 0 0 111.57422 78.519531 z M 163.26562 78.519531 A 17.230021 25.845877 0 0 0 146.03516 104.36523 A 17.230021 25.845877 0 0 0 146.0625 105.19336 A 17.230021 25.845877 0 0 1 163.26562 80.519531 A 17.230021 25.845877 0 0 1 180.46875 105.53711 A 17.230021 25.845877 0 0 0 180.49609 104.36523 A 17.230021 25.845877 0 0 0 163.26562 78.519531 z"/>
 <path style="isolation:isolate;vector-effect:non-scaling-stroke;opacity:0.2" d="M 94.371094 103.19336 A 17.230021 25.845877 0 0 0 94.34375 104.36523 A 17.230021 25.845877 0 0 0 111.57422 130.21094 A 17.230021 25.845877 0 0 0 128.80273 104.36523 A 17.230021 25.845877 0 0 0 128.77539 103.53711 A 17.230021 25.845877 0 0 1 111.57422 128.21094 A 17.230021 25.845877 0 0 1 94.371094 103.19336 z M 146.0625 103.19336 A 17.230021 25.845877 0 0 0 146.03516 104.36523 A 17.230021 25.845877 0 0 0 163.26562 130.21094 A 17.230021 25.845877 0 0 0 180.49609 104.36523 A 17.230021 25.845877 0 0 0 180.46875 103.53711 A 17.230021 25.845877 0 0 1 163.26562 128.21094 A 17.230021 25.845877 0 0 1 146.0625 103.19336 z"/>
</svg>
